svg/u26cf.svg

<svg viewBox="0 0 128 128" xmlns="http://www.w3.org/2000/svg">
  <path d="M120.57,116.83l-6.59,5.7c-2.54,2.19-6.4,1.9-8.57-0.64L37.07,40.63l10.16-9.33l73.85,77.04 C123.33,110.81,123.11,114.64,120.57,116.83z" fill="#A06841"/>
  <g>
    <path d="M58.42,42.97L47.31,31.38l-10.18,9.32l15.52,18.45C55.45,54.22,57.54,48.36,58.42,42.97z" fill="#7D5133"/>
    <path d="M86.38,4.03L86.38,4.03C51.41,3.5,31.54,23.49,31.54,23.49S9.89,44.01,5.55,78.99 c-0.03,0.8-0.01,1.51,1,1.73c1.28,0.28,1.59-0.55,1.88-0.99c4.18-8.7,13.4-25.99,32.42-43.61S78.23,10.45,87.23,6.95 c0.6-0.21,1.01-0.8,1.01-1.54C88.24,4.34,87.35,4.02,86.38,4.03z" fill="#82AEC0"/>
  </g>
  <path d="M37.99,19.63l-0.63-0.65c-0.21-0.22-0.56-0.27-0.83-0.13c-6.31,3.33-9.25,7.57-10.57,9.85 c-0.15,0.26-0.12,0.59,0.09,0.82c0.16,0.17,0.35,0.38,0.55,0.59c0.9,0.98,4.18-0.58,7.33-3.47S38.89,20.61,37.99,19.63z" fill="#A06841"/>
  <path d="M39.89,30.9C13.53,54.46,7.69,80.6,7.69,80.6s0.28-0.08,0.56-0.52c3.8-7.9,12.32-22.79,28.11-38.66 c1.61,1.87,7.25,8.42,7.42,8.6c0.9,0.98,4.52-0.75,7.84-3.81c3.32-3.06,5.29-6.33,4.39-7.31l-7.76-8.37 c16.35-13.57,31.11-20.51,39-23.59c0.56-0.2,0.74-0.61,0.74-0.61C87.79,6.35,66.13,7.43,39.89,30.9z" fill="#2F7889"/>
</svg>

<svg viewBox="0 0 128 128" xmlns="http://www.w3.org/2000/svg">
  <defs/>
  <path d="M120.57,116.83 L113.98,122.53 C111.44,124.72 107.58,124.43 105.41,121.89 L37.07,40.63 L47.23,31.3 L121.08,108.34 C123.33,110.81 123.11,114.64 120.57,116.83 Z" fill="#A06841"/>
  <path d="M58.42,42.97 L47.31,31.38 L37.13,40.7 L52.65,59.15 C55.45,54.22 57.54,48.36 58.42,42.97 Z" fill="#7D5133"/>
  <path d="M86.38,4.03 L86.38,4.03 C51.41,3.5 31.54,23.49 31.54,23.49 C31.54,23.49 9.89,44.01 5.55,78.99 C5.52,79.79 5.54,80.5 6.55,80.72 C7.83,81 8.14,80.17 8.43,79.73 C12.61,71.03 21.83,53.74 40.85,36.12 C59.87,18.5 78.23,10.45 87.23,6.95 C87.83,6.74 88.24,6.15 88.24,5.41 C88.24,4.34 87.35,4.02 86.38,4.03 Z" fill="#82AEC0"/>
  <path d="M37.99,19.63 L37.36,18.98 C37.15,18.76 36.8,18.71 36.53,18.85 C30.22,22.18 27.28,26.42 25.96,28.7 C25.81,28.96 25.84,29.29 26.05,29.52 C26.21,29.69 26.4,29.9 26.6,30.11 C27.5,31.09 30.78,29.53 33.93,26.64 C37.08,23.75 38.89,20.61 37.99,19.63 Z" fill="#A06841"/>
  <path d="M39.89,30.9 C13.53,54.46 7.69,80.6 7.69,80.6 C7.69,80.6 7.97,80.52 8.25,80.08 C12.05,72.18 20.57,57.29 36.36,41.42 C37.97,43.29 43.61,49.84 43.78,50.02 C44.68,51 48.3,49.27 51.62,46.21 C54.94,43.15 56.91,39.88 56.01,38.9 L48.25,30.53 C64.6,16.96 79.36,10.02 87.25,6.94 C87.81,6.74 87.99,6.33 87.99,6.33 C87.79,6.35 66.13,7.43 39.89,30.9 Z" fill="#2F7889"/>
</svg>
